circle-graps.svg

<svg version="1.1" xmlns="http://www.w3.org/2000/svg" xmlns:xlink="http://www.w3.org/1999/xlink" width="99.6094970703125px" height="97.9970703125px" viewBox="0,0,256,251.84375"><g fill="#0099ff" fill-rule="nonzero" stroke="none" stroke-width="1" stroke-linecap="butt" stroke-linejoin="miter" stroke-miterlimit="10" stroke-dasharray="" stroke-dashoffset="0" font-family="none" font-weight="none" font-size="none" text-anchor="none" style="mix-blend-mode: normal"><g transform="translate(2.13419,0.05535) scale(2.57004,2.57004)"><g transform="translate(-8.74028,84.22852)"><path d="M57.7148,13.7207c26.8067,0 48.9742,-22.16797 48.9742,-48.9746c0,-26.8555 -22.1675,-48.9746 -49.023,-48.9746c-26.8066,0 -48.92577,22.1191 -48.92577,48.9746c0,26.80663 22.16797,48.9746 48.97457,48.9746zM57.7148,7.37305c-23.6328,0 -42.6269,-19.04295 -42.6269,-42.62695c0,-22.9492 17.9199,-41.6016 40.625,-42.627v42.9688c0,1.123 0.2441,1.9531 1.0742,2.7832l29.2969,28.75976c-7.5195,6.68945 -17.4805,10.74219 -28.3692,10.74219zM60.8887,-38.2324v-39.5508c14.209,1.0254 26.416,8.9844 33.3984,20.5078zM63.1348,-33.4961l33.4961,-19.1894c2.3925,5.3222 3.7111,11.2304 3.7601,17.4316c0,10.8398 -4.0043,20.6543 -10.5961,28.17382z"></path></g></g></g></svg>

<svg viewBox="0 0 99.6094970703125 97.9970703125" version="1.1" xmlns="http://www.w3.org/2000/svg"><?xml-stylesheet type="text/css" href="style.css"?><g transform="matrix(1 0 0 1 -8.740278320312427 84.228515625)"><path d="M57.7148 13.7207C84.5215 13.7207 106.689-8.44727 106.689-35.2539C106.689-62.1094 84.5215-84.2285 57.666-84.2285C30.8594-84.2285 8.74023-62.1094 8.74023-35.2539C8.74023-8.44727 30.9082 13.7207 57.7148 13.7207ZM57.7148 7.37305C34.082 7.37305 15.0879-11.6699 15.0879-35.2539C15.0879-58.2031 33.0078-76.8555 55.7129-77.8809L55.7129-34.9121C55.7129-33.7891 55.957-32.959 56.7871-32.1289L86.084-3.36914C78.5645 3.32031 68.6035 7.37305 57.7148 7.37305ZM60.8887-38.2324L60.8887-77.7832C75.0977-76.7578 87.3047-68.7988 94.2871-57.2754ZM63.1348-33.4961L96.6309-52.6855C99.0234-47.3633 100.342-41.4551 100.391-35.2539C100.391-24.4141 96.3867-14.5996 89.7949-7.08008Z"></path></g></svg>
